X:085 
T:Jenny Picking Cockles (reel)
F:file ID: cre.5/085jenny_pc
B:CRE5.208 (SinÃÂÃÂÃÂÃÂ©ad ag BailiÃÂÃÂÃÂÃÂº Ruacan)
M:4/4
Q:180
R:reel
K:Am
abag edd2|^cde^f gfg2|a2ga edd2|Bdgd BAA2|
A2a2 ed~d2|^cde^f gfg2|~a2ga ed~d2|Bdgd BA~A2:|
|:A2a2 caba|ge~e2 gebe|a2ag ac'ba|gede cA~A2|
A2a2 caba|g2ab geea|c'2ab agab|1 gedB A2a2:|\
[2 gedB eaag|]

%%%

